X:1
T:James Gibb editions 
T:Ad Dominum dum tribularer - Scarlatti
T:#
%%score [ 1 2 3 4 ]
L:1/8
Q:1/4=180
M:none
K:Bb
V:1 treble nm="Soprano" snm="S"
V:2 treble nm="Alto" snm="A"
V:3 treble-8 nm="Tenor" snm="T"
V:4 bass nm="Bass" snm="B"
V:1
"^Ad Dominum dum tribularer""^Alessandro Scarlatti\n(1660-1725)" z16 | z8 G8 | _A6 B2 c4 c4 | %3
w: |Ad|Do- mi- num, dum|
 c4 c4 (c4 B2 A2 | B6 c2 d4 e2 d2 | c6 B2 _A4 G2 F2 | c2 d2 e8 d2 c2 | d6 c2 B2 A2 G4- | %8
w: trri- bu- la\- * *|||||
 G4 F2 G2 _A8) | G8 z4 G4 | _A6 B2 c4 c4 | c4 c4 (c4 B2 A2 | B6 c2 d4 e2 d2 | c6 B2 _A4 G2 F2 || %14
w: |rer, Ad|Do- mi- num, dum|tri- bu- la\- * *|||
[M:2/2] G2 _A2 G2 F2 ||[M:4/2] E2 F2 G6 A2 B4 | A6 =B2 c2 d2 e4- |[M:4/2] e2 d2 c8 _B2 A2 | %18
w: ||||
 B8) c8- | c8 z8 | z16 | z4 c4 c4 c4 | (c4 B2 A2 B8) | _A8 z4 A4 | _A4 A4 (A4 G2 F2 | G8) G4 z4 | %26
w: * rer,|||dum tri- bu-|la\- * * *|rer, dum|tri- bu- la\- * *|* rer,|
 z4 G4 (e6 d2 | c2 =B2 c8 B2 A2) ||[M:2/2] =B8 ||[M:4/2] z16 | c4 (f8 e4) | (d2 =B2) c8 B4 | c16 || %33
w: cla- ma\- *||vi,||et e\- *|xau\- * di- vit|me.|
 c6 c2 G8 | B6 B2 B4 B4- | B2 B2 B4 B8 ||[M:6/2] B24 ||[M:4/2] F8 F6 F2 | F4 F4 F8 | F4 A6 B2 c4 | %40
w: Do- mi- ne|li- be- ra a\-|* ni- mam me-|am|a la- bi-|is i- ni-|quis, et a lin-|
 A8 d8 | (c4 B6 A2 d4 | c8 B4 A4- | A2 ^F2 G8 F4) ||[M:2/2] G8 ||[M:4/2] B8 B4 B4 | B4 B4 B8 | %47
w: gua do-|lo\- * * *|||sa,|a la- bi-|is i- ni-|
 B4 B8 B4- | B4 B6 B2 B4 | (B16 | F8 G8- | G16) | G8[Q:1/4=178] c8 |[Q:1/4=174] B8[Q:1/4=170] _A8 | %54
w: quis, et a|* lin- gua do-|lo\-|||sa, a|lin- gua|
[Q:1/4=167] G4[Q:1/4=165] (G8[Q:1/4=162] F4- | %55
w: do- lo\- *|
[Q:1/4=160] F4[Q:1/4=158] F8[Q:1/4=156] =E2[Q:1/4=155] D2) |[Q:1/4=155] =E16 |] %57
w: |sa.|
V:2
 C8 E6 F2 | G4 G4 G4 G4 | (G4 F8 E2 D2 | E6 F2 G8- | G2 A2 G2 A2 B8 | _A6 G2 F8) | G16 | z16 | %8
w: Ad Do- mi-|num, dum tri- bu-|la\- * * *||||rer,||
 C8 E6 F2 | G4 G4 G4 G4 | (G4 F8 E2 D2 | E6 F2 G8- | G2 A2 G2 A2 B4 B,4 | C16 ||[M:2/2] C8 || %15
w: Ad Do- mi-|num, dum tri- bu-|la\- * * *||||rer,|
[M:4/2] z16 | z8 C8 |[M:4/2] E6 F2 G4 G4 | G4 G4 G4 F4- | F4 E2 D2 C4 D4 | E4 D2 C2 D4 G4- | %21
w: |Ad|Do- mi- num, dum|tri~- bu- la\- *|||
 G4 F2 E2 F8 | E4 D2 C2 D4 G4- | G4 F2 =E2 F4 C4 | D8) C8 | z4 C4 (E6 F2 | G8 C2 D2 E4- | %27
w: |||* rer,|cla- ma\- *||
 E2 D2 E2 F2 G8) ||[M:2/2] G8 ||[M:4/2] z8 G8 | (_A6 G2 F4) G4 | G8 G8 | G16 || z8 E6 E2 | %34
w: |vi,|et|e\- * * xau-|di- vit|me|Do- mi-|
 B,8 F6 F2 | F4 F6 F2 F4 ||[M:6/2] G8 F16 ||[M:4/2] z4 D4 C4 C4 | C4 D4 C8 | C4 F8 F4- | %40
w: ne li- be-|ra a- ni- mam|me- am|a la- bi-|is i- ni-|quis, et a|
 F4 F6 F2 F4 | (F16 | C8 D8 | D16) ||[M:2/2] D8 ||[M:4/2] z4 G4 F4 G4 | F4 G4 F8 | F4 D6 E2 F4 | %48
w: * lin- gua do-|lo\-|||sa,|a la- bi-|is i- ni-|quis, et a lin-|
 D8 G8 | (F4 E6 D2 G4 | F8 E4 D4- | D2 =B,2 C8 B,4) | C8 C8 | C16 | C8 C8 | (=B,8 C8) | C16 |] %57
w: gua do-|lo\- * * *|||sa, a|lin-|gua do-|~lo\- *|sa.|
V:3
 z16 | z16 | z16 | z16 | z8 G8 | _A6 B2 c4 c4 | c4 c4 (c4 B2 A2 | B6 c2 d4 e4- | %8
w: ||||Ad|Do- mi- num, dum|tri- bu- la\- * *||
 e2 d2 c2 =B2 c4 _B2 _A2 | B8 c8- | c8 z8 | C8 E6 F2 | G4 G4 G4 G4 | G4- F8 E2 D2 || %14
w: |* rer,||Ad Do- mi-|num, dum tri- bu-|la\- * * *|
[M:2/2] E6 F2 ||[M:4/2] G2 A2 B2 c2 B4 G4- | G4 F2 G2 _A4 G4 |[M:4/2][K:treble-8] c6 d2 e4 d2 c2 | %18
w: ||||
 d4 e6 d2 c2 B2 | _A16) | G16 | z16 | z8 G8 | _A6 B2 c4 f4 | f4 f4 (f4 e2 d2 | e8) e4 c4 | %26
w: ||rer,||Ad|Do- mi- num dum,|tri- bu- la\- * *|* rer, cla-|
 (e6 d2 c6 d2 | e12 d2 c2) ||[M:2/2] d8 ||[M:4/2] G4 (d6 c2) c4 | c4 c4 d4 G4 | %31
w: ma\- * * *||vi,|et e\- * xau-|di- vit me, e-|
 (=B2 c2 e2 dc) d4 d4 | =e16 || z8 c6 c2 | G8 d6 d2 | d4 d6 d2 d4 ||[M:6/2] (d4 e8 d2 c2) d8 || %37
w: xau\- * * * * di- vit|me.|Do- mi-|ne li- be-|ra a- ni- mam|me\- * * * am|
[M:4/2] B4 B6 A2 B4- | B2 A2 (B6 AG) A4 | A6 B2 c4 A4 | d4 (c6 BA B4- | B2 A2 d4 c6 B2 | A4 G8 F4 | %43
w: a la- bi- is|* i- ni\- * * quis,|et a lin- gua|do- lo\- * * *|||
 B8 A8) ||[M:2/2] B8 ||[M:4/2] e4 e6 d2 e4- | e2 d2 (e6 dc) d4 | d6 e2 f4 d4 | g4 (f6 ed e4- | %49
w: |sa,|a la- bi- is|* i- ni\- * * quis,|et a lin- gua|do- lo\- * * *|
 e2 d2 g4 f6 e2 | d4 c8 B4 | e8 d8) | =e4 c6 B2 _A4- | A4 G8 (F4- | F6 E2) (_A8- | A4 G2 F2 G8) | %56
w: |||sa, et a lin\-|* gua do\-|* * lo\-||
 G16 |] %57
w: sa.|
V:4
 z16 | z16 | z16 | C,8 E,6 F,2 | G,4 G,4 G,4 G,4 | (G,4 F,8 E,2 D,2 | E,6 F,2 G,8- | %7
w: |||Ad Do- mi-|num, dum tri- bu-|la\- * * *||
 G,2 A,2 G,2 A,2 B,4 C4- | C2 B,2 _A,8 G,2 F,2 | E,6 D,2 C,2 D,2 =E,4 | F,6 G,2 _A,8- | A,8) G,8 | %12
w: ||||* rer,|
 z8 G,,8 | _A,,6 B,,2 C,4 C,4 ||[M:2/2] C,4 C,4 ||[M:4/2] (C,4 B,,2 A,,2 B,,6 C,2 | D,8 C,6 B,,2 | %17
w: Ad|Do- mi- num, dum|tri- bu-|la\- * * * *||
[M:4/2] _A,,8 G,,8 | G,8 _A,6 B,2 | C4 C4 C4 C4 | C4 B,2 A,2 B,8 | A,8 _A,8 | G,12 =E,4 | F,16 | %24
w: * rer,|Ad Do- mi-|num, dum tri- bu-|la\- * * *||||
 =B,,8) C,8 | C,8 (C8- | C4 B,4 _A,8- | A,8 G,8) ||[M:2/2] G,8 ||[M:4/2] z4 G,4 E,8 | %30
w: * rer,|cla- ma\-|||vi,|et e\-|
 (F,6 E,2 D,4 C,4) | G,8 G,8 | C,16 || z16 | z8 B,6 B,2 | B,4 B,6 B,2 B,4 ||[M:6/2] B,8 B,16 || %37
w: xau\- * * *|di- vit|me.||li- be-|ra a- ni- mam|me- am|
[M:4/2] z16 | F,4 F,6 F,2 F,4 | F,8 F,8 | F,4 F,8 F,4 | F,4 F,6 F,2 (F,4- | F,4 E,4 D,8- | D,16) || %44
w: |a la- bi- is|i- ni-|quis, et a|lin- gua do- lo\-|||
[M:2/2] G,,8 ||[M:4/2] z16 | B,4 B,6 B,2 B,4 | B,8 B,8 | B,4 B,8 B,4 | B,4 B,6 (B,2 B,4- | %50
w: sa,||a la- bi- is|i\-- ni-|quis, et a|lin- gua do- lo\-|
 B,4 _A,4 G,8 | G,16) | C,16 | C,16 | (C,16 | D,8 C,8) | C,16 |] %57
w: ||sa,|do-|lo\-||sa.|

